X:1
T:Bridgeport, 77.76 D
T:Bridgeport, 77.76 D
T:Hubert Platt Main, 1875
T:Public Domain Courtesy of the Cyber Hymnal™
C:Hubert Platt Main, 1875
Z:Public Domain
Z:Courtesy of the Cyber Hymnal™
%%score ( 1 2 ) ( 3 4 )
L:1/8
Q:1/4=105
M:3/8
K:Ab
V:1 treble 
V:2 treble 
V:3 bass 
V:4 bass 
V:1
 [Ec]2 [EB] | (BA)[DF] | [DA]2 [DF] | [CE]3 | [CE]2 E | (EF)[EG] | [EA]2 [Ec] | [EB]3 | %8
 [Ec]2 [Ec] | ([Fd][Ec])[DB] | (BA)[DF] | [FA]3 | E2 [CA] | [CA]2 [Ec] | [DB]3 | [CA]3 | %16
 [EB]2 [EB] | (Bc)[Ed] | [Ec]2 [DB] | [CA]3 | [Fd]2 [Fd] | [Fd]2 [Fd] | (cB)[EA] | [EB]3 | %24
 [Ec]2 [Ec] | ([Fd][Ec])[DB] | (BA)[DF] | [FA]3 | E2 [CA] | [CA]2 [Ec] | [DB]3 | [CA]3 |] %32
V:2
 x3 | E2 x | x3 | x3 | x2 E | E2 x | x3 | x3 | x3 | x3 | E2 x | x3 | E2 x | x3 | x3 | x3 | x3 | %17
 E2 x | x3 | x3 | x3 | x3 | E2 x | x3 | x3 | x3 | E2 x | x3 | E2 x | x3 | x3 | x3 |] %32
V:3
 [A,,A,]2 [B,,G,] | [C,A,]2 [D,A,] | [D,F,]2 [D,A,] | [A,,A,]3 | [A,,A,]2 [C,A,] | (G,A,)[D,B,] | %6
 [C,A,]2 [A,,A,] | [E,G,]3 | A,2 A, | [A,,A,]2 [B,,G,] | [C,A,]2 [D,A,] | [D,A,]3 | [E,C]2 [E,A,] | %13
 E,2 [E,A,] | [E,G,]3 | A,3 | [E,G,]2 [E,G,] | (G,A,)[E,B,] | A,2 [E,G,] | [F,A,]3 | %20
 [D,A,]2 [D,A,] | [D,A,]2 [D,A,] | ([A,,A,][B,,G,])[C,A,] | [E,G,]3 | A,2 A, | [A,,A,]2 [B,,G,] | %26
 [C,A,]2 [D,A,] | [D,A,]3 | [E,C]2 [E,A,] | E,2 [E,A,] | [E,G,]3 | [A,,A,]3 |] %32
V:4
 x3 | x3 | x3 | x3 | x3 | E,2 x | x3 | x3 | A,2 A, | x3 | x3 | x3 | x3 | E,2 x | x3 | A,3 | x3 | %17
 E,2 x | A,2 x | x3 | x3 | x3 | x3 | x3 | A,2 A, | x3 | x3 | x3 | x3 | E,2 x | x3 | x3 |] %32

